X:50
T:Alderman's Hat THO4.050, The
M:2/4
L:1/8
Z:vmp. Peter Dunk 2010/11.from a transcription by Fynn Titford-Mock 2007
B:Thompson's Compleat Collection of 200 Favourite Country Dances Volume IV.
Q:1/4=140
K:Bb
D|G B2 G|^F d2 D|G B2 G|^F A2 D|G B2 G|^F g2 c|B2A2|G3:|
|:d|f g2 f|g b2 d|c f2 c|f a2 c|B e2 d/c/|d g2 c|B2A2|G3:|
